image/favicon.svg

<svg height="24" viewBox="0 0 16 16" width="24" xmlns="http://www.w3.org/2000/svg"><path d="m8.17637 3.92203v1.63364c.00009.08983.02618.17758.07492.25205.04874.07446.11794.13226.19873.16601s.16951.0419.25482.02343c.08532-.01847.16335-.06273.22412-.12712l2.47134-2.5453c.042-.04218.0755-.0926.0983-.14831.0228-.0557.0345-.11554.0345-.176s-.0117-.12031-.0345-.17601-.0563-.10613-.0983-.14831l-2.47134-2.545286c-.06234-.0631643-.14144-.1058782-.22733-.12275349-.08588-.01687529-.17469-.00715627-.25521.02793649-.08053.0350928-.14915.093981-.19722.169231-.04806.07525-.07341.163489-.07283.253571v1.633641c-.93057-.00028-1.85206.18836-2.71184.55515s-1.64099.90454-2.299 1.58251c-.658.67797-1.17991 1.48289-1.53589 2.36876-.35599.88586-.53908 1.83532-.53881 2.79412-.0011.92281.17159 1.83701.5085 2.69201.05381.1411.14081.2663.2532.3641.11239.0979.24663.1655.39065.1967s.29331.025.43443-.0181c.14112-.043.26964-.1215.37402-.2284.12099-.1199.20486-.274.24105-.4429.0362-.169.0231-.3452-.03765-.5064-.26035-.651-.39274-1.3487-.38951-2.05282.00081-1.4513.5605-2.84296 1.55622-3.86948.99571-1.02652 2.34607-1.604 3.75463-1.60567z" fill="#43b675"/><path d="m14.9102 8.69805c.0002.95867-.1828 1.90795-.5388 2.79375-.3559.8857-.8777 1.6905-1.5356 2.3684s-1.4391 1.2155-2.2987 1.5823c-.85966.3667-1.78102.5553-2.71145.555v.0053c-.89148-.0007-1.77445-.1786-2.60051-.5239-.15501-.0633-.28959-.1703-.38834-.3088-.09874-.1384-.15766-.3027-.17-.474-.01004-.1303.0076-.2612.05168-.3837.04409-.1225.11357-.2337.20359-.3257.0902-.0936.19897-.1661.31886-.2124.11988-.0463.24806-.0653.37577-.0559.07777.0066.15399.0261.22577.0577.80641.3376 1.68102.4657 2.5468.3731.86578-.0927 1.69613-.4032 2.41803-.9044.7219-.5011 1.3131-1.1774 1.7216-1.9694.4084-.792.6217-1.67526.6208-2.57211h-.0122c-.0021-.70388-.1343-1.40089-.3895-2.05383-.0272-.06429-.0447-.13249-.0519-.20224-.0143-.13598.0012-.27354.0453-.40255.0441-.129.1157-.24618.2096-.3429.0939-.09671.2076-.17051.3328-.21596s.2587-.06138.3907-.04664c.1606.0179.3134.08064.4419.18147.1285.10084.2279.23591.2873.39066.3353.85359.5073 1.76591.5065 2.68675z" fill="#f8b037"/><path d="m6.58068 10.7887c-.32545.0786-.74954-.0304-1.27635-.3291l-1.13906-.6465c-.05535-.0247-.10397-.06304-.14156-.11165-.0376-.0486-.06302-.10598-.07405-.16709-.0092-.14127.0265-.28178.1017-.40029l1.78588-3.34691c.05835-.12826.15491-.23398.27561-.30179.05615-.02196.11653-.02999.17625-.02344.05972.00656.11711.02751.16751.06117l1.14006.64654c.52614.29899.84345.61091.95193.93575.10984.32484.06713.67169-.12814 1.0374-.2451.45687-.54512.71884-.89701.78381.13832.33532.08441.73351-.16272 1.1998-.19324.3605-.45359.5837-.78005.6623zm.73632-3.30922c-.07527-.09669-.17091-.17445-.27968-.22738l-.48817-.27664c-.01074-.00771-.02352-.01184-.03661-.01184s-.02587.00413-.03661.01184c-.02231.01387-.04086.03334-.05391.05658l-.17797.3458c-.01131.02228-.01691.04716-.01627.0723.00049.01279.00447.02518.01149.03574.00701.01057.01678.01888.02817.02399l.48613.27664c.10094.06814.21649.10987.33663.12156.04411-.0013.08688-.01589.12303-.04197.03615-.02607.0641-.06248.08038-.10474.02979-.03969.04784-.08739.05199-.13739.00415-.04999-.00578-.10016-.0286-.14449zm-.85837 1.60849c-.07596-.09666-.17184-.17469-.28069-.22844l-.48613-.27978c-.01056-.00667-.02271-.0102-.03509-.0102-.01239 0-.02453.00353-.03509.0102-.02191.01483-.04033.03452-.0539.05763l-.18306.34161c-.01082.02437-.01671.05075-.01729.07754.00052.01265.0044.02491.01121.03544s.01631.01893.02744.02429l.48714.27559c.10077.06709.21468.11039.33359.1268.08645 0 .15763-.05449.21865-.1708.02577-.03763.04068-.08199.04302-.12798.00234-.04598-.00799-.09171-.0298-.1319z" fill="#f8b037"/><path d="m9.93957 12.6665c-.32544.0786-.74954-.0303-1.27636-.329l-1.14007-.6465c-.05521-.0248-.10366-.0632-.14108-.1118-.03743-.0486-.06267-.1059-.07351-.167-.0092-.1412.0265-.2817.1017-.4002l1.78283-3.35116c.05832-.12793.15444-.23357.27459-.30178.05637-.02173.11687-.02963.17671-.02309.05984.00655.11739.02737.16806.06081l1.13906.64654c.5268.29864.8431.60986.9529.93575.1099.32589.0672.67169-.1291 1.03743-.2441.4568-.5451.7188-.896.7838.1373.3353.0834.7335-.1627 1.1998-.1902.3605-.4506.5837-.77703.6664zm.73633-3.30915c-.0755-.0964-.1711-.17411-.2797-.22738l-.49121-.28083c-.01059-.00762-.02319-.01171-.0361-.01171-.01292 0-.02552.00409-.03611.01171-.02258.01398-.04117.03386-.0539.05763l-.18306.34161c-.01052.02253-.01575.0473-.01526.0723.0005.01279.00448.02518.0115.03574.00701.01056.01678.01888.02817.02399l.48617.27664c.1009.06814.2164.10986.3366.12155.0441-.0013.0869-.01588.123-.04196.0362-.02607.0641-.06249.0804-.10474.0299-.03887.0486-.08566.0538-.13498s-.0032-.09916-.0243-.14376zm-.85837 1.60845c-.07596-.0966-.17185-.1746-.2807-.2284l-.48614-.2756c-.01055-.0067-.02269-.0102-.03508-.0102-.01238 0-.02453.0035-.03509.0102-.02214.0146-.04061.0343-.0539.0576l-.18306.3417c-.01082.0243-.01671.0507-.01729.0775.00028.0127.00407.0251.01092.0356.00684.0106.01645.019.02772.0241l.48614.2756c.10106.0673.21534.1106.3346.1268.04837-.0043.09458-.0226.13327-.0529.03869-.0302.06829-.0711.08539-.1179.02717-.0386.04288-.0845.04523-.1321s-.00877-.0949-.03201-.1362z" fill="#43b675"/></svg>

<svg width="24" height="24" viewBox="0 0 16 16" xmlns="http://www.w3.org/2000/svg">
    <path
        d="M8.17637 3.92203V5.55567C8.17646 5.6455 8.20255 5.73325 8.25129 5.80772C8.30003 5.88218 8.36923 5.93998 8.45002 5.97373C8.53081 6.00748 8.61953 6.01563 8.70484 5.99716C8.79016 5.97869 8.86819 5.93443 8.92896 5.87004L11.4003 3.32474C11.4423 3.28256 11.4758 3.23214 11.4986 3.17643C11.5214 3.12073 11.5331 3.06089 11.5331 3.00043C11.5331 2.93997 11.5214 2.88012 11.4986 2.82442C11.4758 2.76872 11.4423 2.71829 11.4003 2.67611L8.92896 0.130824C8.86662 0.0676597 8.78752 0.0249458 8.70163 0.00807051C8.61575 -0.00880478 8.52694 0.000914238 8.44642 0.036007C8.36589 0.0710998 8.29727 0.129988 8.2492 0.205238C8.20114 0.280488 8.17579 0.368727 8.17637 0.458809V2.09245C7.2458 2.09217 6.32431 2.28081 5.46453 2.6476C4.60475 3.01439 3.82354 3.55214 3.16553 4.23011C2.50753 4.90808 1.98562 5.713 1.62964 6.59887C1.27365 7.48473 1.09056 8.43419 1.09083 9.39299C1.08973 10.3158 1.26242 11.23 1.59933 12.085C1.65314 12.2261 1.74014 12.3513 1.85253 12.4491C1.96492 12.547 2.09916 12.6146 2.24318 12.6458C2.3872 12.677 2.53649 12.6708 2.67761 12.6277C2.81873 12.5847 2.94725 12.5062 3.05163 12.3993C3.17262 12.2794 3.25649 12.1253 3.29268 11.9564C3.32888 11.7874 3.31578 11.6112 3.25503 11.45C2.99468 10.799 2.86229 10.1013 2.86552 9.39718C2.86633 7.94588 3.42602 6.55422 4.42174 5.5277C5.41745 4.50118 6.76781 3.9237 8.17637 3.92203Z"
        fill="#43B675" />
    <path
        d="M14.9102 8.69805C14.9104 9.65672 14.7274 10.606 14.3714 11.4918C14.0155 12.3775 13.4937 13.1823 12.8358 13.8602C12.1779 14.5381 11.3967 15.0757 10.5371 15.4425C9.67744 15.8092 8.75608 15.9978 7.82565 15.9975V16.0028C6.93417 16.0021 6.0512 15.8242 5.22514 15.4789C5.07013 15.4156 4.93555 15.3086 4.8368 15.1701C4.73806 15.0317 4.67914 14.8674 4.6668 14.6961C4.65676 14.5658 4.6744 14.4349 4.71848 14.3124C4.76257 14.1899 4.83205 14.0787 4.92207 13.9867C5.01227 13.8931 5.12104 13.8206 5.24093 13.7743C5.36081 13.728 5.48899 13.709 5.6167 13.7184C5.69447 13.725 5.77069 13.7445 5.84247 13.7761C6.64888 14.1137 7.52349 14.2418 8.38927 14.1492C9.25505 14.0565 10.0854 13.746 10.8073 13.2448C11.5292 12.7437 12.1204 12.0674 12.5289 11.2754C12.9373 10.4834 13.1506 9.60014 13.1497 8.70329H13.1375C13.1354 7.99941 13.0032 7.3024 12.748 6.64946C12.7208 6.58517 12.7033 6.51697 12.6961 6.44722C12.6818 6.31124 12.6973 6.17368 12.7414 6.04467C12.7855 5.91567 12.8571 5.79849 12.951 5.70177C13.0449 5.60506 13.1586 5.53126 13.2838 5.48581C13.409 5.44036 13.5425 5.42443 13.6745 5.43917C13.8351 5.45707 13.9879 5.51981 14.1164 5.62064C14.2449 5.72148 14.3443 5.85655 14.4037 6.0113C14.739 6.86489 14.911 7.77721 14.9102 8.69805Z"
        fill="#F8B037" />
    <path
        d="M6.58068 10.7887C6.25523 10.8673 5.83114 10.7583 5.30433 10.4596L4.16527 9.8131C4.10992 9.7884 4.0613 9.75006 4.02371 9.70145C3.98611 9.65285 3.96069 9.59547 3.94966 9.53436C3.94046 9.39309 3.97616 9.25258 4.05136 9.13407L5.83724 5.78716C5.89559 5.6589 5.99215 5.55318 6.11285 5.48537C6.169 5.46341 6.22938 5.45538 6.2891 5.46193C6.34882 5.46849 6.40621 5.48944 6.45661 5.5231L7.59667 6.16964C8.12281 6.46863 8.44012 6.78055 8.5486 7.10539C8.65844 7.43023 8.61573 7.77708 8.42046 8.14279C8.17536 8.59966 7.87534 8.86163 7.52345 8.9266C7.66177 9.26192 7.60786 9.66011 7.36073 10.1264C7.16749 10.4869 6.90714 10.7101 6.58068 10.7887ZM7.317 7.47948C7.24173 7.38279 7.14609 7.30503 7.03732 7.2521L6.54915 6.97546C6.53841 6.96775 6.52563 6.96362 6.51254 6.96362C6.49945 6.96362 6.48667 6.96775 6.47593 6.97546C6.45362 6.98933 6.43507 7.0088 6.42202 7.03204L6.24405 7.37784C6.23274 7.40012 6.22714 7.425 6.22778 7.45014C6.22827 7.46293 6.23225 7.47532 6.23927 7.48588C6.24628 7.49645 6.25605 7.50476 6.26744 7.50987L6.75357 7.78651C6.85451 7.85465 6.97006 7.89638 7.0902 7.90807C7.13431 7.90677 7.17708 7.89218 7.21323 7.8661C7.24938 7.84003 7.27733 7.80362 7.29361 7.76136C7.3234 7.72167 7.34145 7.67397 7.3456 7.62397C7.34975 7.57398 7.33982 7.52381 7.317 7.47948ZM6.45863 9.08797C6.38267 8.99131 6.28679 8.91328 6.17794 8.85953L5.69181 8.57975C5.68125 8.57308 5.6691 8.56955 5.65672 8.56955C5.64433 8.56955 5.63219 8.57308 5.62163 8.57975C5.59972 8.59458 5.5813 8.61427 5.56773 8.63738L5.38467 8.97899C5.37385 9.00336 5.36796 9.02974 5.36738 9.05653C5.3679 9.06918 5.37178 9.08144 5.37859 9.09197C5.3854 9.1025 5.3949 9.1109 5.40603 9.11626L5.89317 9.39185C5.99394 9.45894 6.10785 9.50224 6.22676 9.51865C6.31321 9.51865 6.38439 9.46416 6.44541 9.34785C6.47118 9.31022 6.48609 9.26586 6.48843 9.21987C6.49077 9.17389 6.48044 9.12816 6.45863 9.08797Z"
        fill="#F8B037" />
    <path
        d="M9.93957 12.6665C9.61413 12.7451 9.19003 12.6362 8.66321 12.3375L7.52314 11.691C7.46793 11.6662 7.41948 11.6278 7.38206 11.5792C7.34463 11.5306 7.31939 11.4733 7.30855 11.4122C7.29935 11.271 7.33505 11.1305 7.41025 11.012L9.19308 7.66084C9.2514 7.53291 9.34752 7.42727 9.46767 7.35906C9.52404 7.33733 9.58454 7.32943 9.64438 7.33597C9.70422 7.34252 9.76177 7.36334 9.81244 7.39678L10.9515 8.04332C11.4783 8.34196 11.7946 8.65318 11.9044 8.97907C12.0143 9.30496 11.9716 9.65076 11.7753 10.0165C11.5312 10.4733 11.2302 10.7353 10.8793 10.8003C11.0166 11.1356 10.9627 11.5338 10.7166 12.0001C10.5264 12.3606 10.266 12.5838 9.93957 12.6665ZM10.6759 9.35735C10.6004 9.26095 10.5048 9.18324 10.3962 9.12997L9.90499 8.84914C9.8944 8.84152 9.8818 8.83743 9.86889 8.83743C9.85597 8.83743 9.84337 8.84152 9.83278 8.84914C9.8102 8.86312 9.79161 8.883 9.77888 8.90677L9.59582 9.24838C9.5853 9.27091 9.58007 9.29568 9.58056 9.32068C9.58106 9.33347 9.58504 9.34586 9.59206 9.35642C9.59907 9.36698 9.60884 9.3753 9.62023 9.38041L10.1064 9.65705C10.2073 9.72519 10.3228 9.76691 10.443 9.7786C10.4871 9.7773 10.5299 9.76272 10.566 9.73664C10.6022 9.71057 10.6301 9.67415 10.6464 9.6319C10.6763 9.59303 10.695 9.54624 10.7002 9.49692C10.7054 9.4476 10.697 9.39776 10.6759 9.35316V9.35735ZM9.81753 10.9658C9.74157 10.8692 9.64568 10.7912 9.53683 10.7374L9.05069 10.4618C9.04014 10.4551 9.028 10.4516 9.01561 10.4516C9.00323 10.4516 8.99108 10.4551 8.98052 10.4618C8.95838 10.4764 8.93991 10.4961 8.92662 10.5194L8.74356 10.8611C8.73274 10.8854 8.72685 10.9118 8.72627 10.9386C8.72655 10.9513 8.73034 10.9637 8.73719 10.9742C8.74403 10.9848 8.75364 10.9932 8.76491 10.9983L9.25105 11.2739C9.35211 11.3412 9.46639 11.3845 9.58565 11.4007C9.63402 11.3964 9.68023 11.3781 9.71892 11.3478C9.75761 11.3176 9.78721 11.2767 9.80431 11.2299C9.83148 11.1913 9.84719 11.1454 9.84954 11.0978C9.85189 11.0502 9.84077 11.0029 9.81753 10.9616V10.9658Z"
        fill="#43B675" />
</svg>
